!!!OTL: Schön ist die Jugend (82), S.224
!!!id: T0239
**kern
*clefG2
*k[]
*C:
{8g
8e
8f
=1
8g
8ee
8ee
8dd
8cc
8a
=2
4g
8e}
=3
{8cc
8b
8cc
=4
8dd
8g
8g
8g
8a
8b
=5
4cc}
8r
=6
{8g
8a
8g
=7
*M4/4
8.dd
16dd
4dd
8r
8ff
8ee
8dd
=8
8.ee
16ee
8ee}
=9
{8g
8a
8g
=10
8g
8ff
8ee
8dd
8cc
16b
16a
8b
8b
=11
4cc}
4.r
=12
{8g
8a
8g
=13
8.dd
16dd
4dd
8r
8ff
8ee
8dd
=14
8.ee
16ee
8ee}
=15
{8g
8a
8g
=16
8g
8ff
8ee
8dd
4gg
4ff
=17
4ee}
8r
==
*-
!!!minrhy: 16
!!!meters: 3/4 4/4 ]  ZZ[6
!!!cut: Schön ist die Jugend (82), S.224
!!!reg: Luxemburg
!!!trd: Singendes Volk, Esch-Alzette 1937 posth.
!!!rhy1: X_X_X_  X_X_X_X_X_X_  X__X_   (x2)
!!!rhy2: X_X_X_  X_X_X_X_X_X_  X__0
!!!key: T0239  16  C 3/4 4/4 ]  ZZ[6
!!!mod: HEPTATONIK IONISCH]  AMBITUS[10b
!!!kad: 3+1+3+1+3+3
!!!akz: 55_+2+1_+2+3_5+1+1_+2+3_5+5+3_
!!!fot: 'a__b__c__d__c__e__
!!!for: 'a__a__b__c__b__d__
!!!fok: 'Sd_V__/__~a_/__^a_
!! PHRAS[AUFTAKTIG]
!!!fkt: Liebeslieder
!!!bem: Blascheid, Nikolaus Perl, 1902
!! THILL, Mathias:
!! PR[27] 2K[6] 2G[12] 3K[3] 3G[3] 4A[6] 4Ü[0] 5A[0] 6K[0] 6G[3]
!! 7K[0] 7G[0] 8A[0] MEHR[0] SI[33] ABS[33] SR[18] SP[15]
!! ST[9] 2k[6] 2g[18] 3k[6] 3g[3] 4d[3] 4ü[0] 5d[3] 6k[0] 6g[0]
!! 7k[0] 7g[0] 8d[0] mehr[0] si[39] dm[-6] sr[24] sp[15]
!! 1F[3] 2F[59] 3F[28] 4F[0] LF[0] 2P[3] 3P[8] 4P[0] TRI[0] DF[5] AB[39]
!! TF[0] U3K[0] U3[0] U4[0] U4Ü[0] U5[3] U6K[0] U6[0] U7K[0] U7[0]
!! N1[21] N2K[0] N2[12] N3K[0] N3[35] N4[12] N4Ü[0] N5[15] N6K[0] N6[3]
!!!n7k: 0] N7[0] O1[0] O2K[0] O2[0] O3K[0] O3[0] HÖ[0
